;FLAVOR:RepRap
;TIME:676
;Filament used: 0.915262m
;Layer height: 0.25
;Generated with Cura_SteamEngine 2.4.0
M140 S80 ; set the bed temperature and continue on
M104 S230; set the hotend temperature and continue on

G21 ;metric values
G91; relative positioning
G0 Z10; 10mm up
G90 ;absolute positioning
M82 ;set extruder to absolute mode
M107 ;start with the fan off
G28 X0 Y0 ;move X/Y to min endstops
G28 Z0 ;move Z to min endstops
G29 ;autobed
G1 Z15.0 F9000 ;move the platform down 15mm

M163 S0 P0 ; color violeta
M163 S1 P1 
M163 S2 P1
M164 S0
T0

M190 S80 ; set the bed temperature and wait
M109 S230; wait for the extruder temperature

G92 E0 ;zero the extruded length
G1 F200 E5 ;extrude 5mm of feed stock
G92 E0 ;zero the extruded length again
G1 F9000
M117 Imprimiendo...
;LAYER_COUNT:60
;LAYER:0
M107
G1 F900 E-4
G0 F2700 X89.468 Y158.676 Z0.3
;TYPE:SKIRT
G1 F900 E0
G1 X90.085 Y158.361 E0.03352
G1 X90.733 Y158.118 E0.06702
G1 X91.406 Y157.951 E0.10057
G1 X92.092 Y157.863 E0.13404
G1 X92.509 Y157.849 E0.15423
G1 X107.491 Y157.85 E0.87927
G1 X108.183 Y157.89 E0.91281
G1 X108.865 Y158.009 E0.94631
G1 X109.529 Y158.207 E0.97984
G1 X110.165 Y158.479 E1.01332
G1 X110.767 Y158.823 E1.04687
G1 X111.324 Y159.234 E1.08037
G1 X111.83 Y159.706 E1.11386
G1 X112.279 Y160.234 E1.1474
G1 X112.664 Y160.81 E1.18093
G1 X112.98 Y161.426 E1.21443
G1 X113.222 Y162.075 E1.24795
G1 X113.389 Y162.747 E1.28146
G1 X113.477 Y163.434 E1.31498
G1 X113.491 Y163.85 E1.33512
G1 X113.491 Y178.831 E2.06011
G1 X113.451 Y179.522 E2.0936
G1 X113.332 Y180.205 E2.12715
G1 X113.134 Y180.868 E2.16064
G1 X112.862 Y181.505 E2.19416
G1 X112.518 Y182.106 E2.22767
G1 X112.107 Y182.664 E2.26121
G1 X111.635 Y183.17 E2.29469
G1 X111.107 Y183.619 E2.32823
G1 X110.532 Y184.004 E2.36172
G1 X109.915 Y184.319 E2.39525
G1 X109.267 Y184.562 E2.42874
G1 X108.594 Y184.729 E2.4623
G1 X107.908 Y184.817 E2.49577
G1 X107.491 Y184.831 E2.51596
G1 X92.509 Y184.831 E3.24099
G1 X91.818 Y184.791 E3.27448
G1 X91.135 Y184.672 E3.30803
G1 X90.472 Y184.474 E3.34152
G1 X89.835 Y184.202 E3.37504
G1 X89.234 Y183.858 E3.40855
G1 X88.676 Y183.447 E3.44209
G1 X88.17 Y182.975 E3.47558
G1 X87.721 Y182.447 E3.50912
G1 X87.336 Y181.872 E3.54261
G1 X87.021 Y181.255 E3.57613
G1 X86.778 Y180.607 E3.60962
G1 X86.611 Y179.934 E3.64318
G1 X86.523 Y179.248 E3.67665
G1 X86.509 Y178.831 E3.69684
G1 X86.509 Y163.849 E4.42187
G1 X86.549 Y163.158 E4.45537
G1 X86.668 Y162.475 E4.48892
G1 X86.866 Y161.812 E4.5224
G1 X87.138 Y161.175 E4.55592
G1 X87.482 Y160.574 E4.58943
G1 X87.893 Y160.016 E4.62297
G1 X88.365 Y159.51 E4.65646
G1 X88.893 Y159.061 E4.69
G1 X89.468 Y158.676 E4.72349
G0 F2700 X89.849 Y158.921
G1 F900 X90.456 Y158.639 E4.75588
G1 X91.092 Y158.431 E4.78826
G1 X91.748 Y158.301 E4.82062
G1 X92.509 Y158.249 E4.85754
G1 X107.491 Y158.25 E5.58257
G1 X108.159 Y158.29 E5.61495
G1 X108.818 Y158.409 E5.64736
G1 X109.457 Y158.606 E5.67972
G1 X110.068 Y158.878 E5.71209
G1 X110.643 Y159.221 E5.74449
G1 X111.172 Y159.63 E5.77685
G1 X111.649 Y160.099 E5.80922
G1 X112.067 Y160.622 E5.84162
G1 X112.419 Y161.19 E5.87396
G1 X112.701 Y161.797 E5.90635
G1 X112.909 Y162.433 E5.93873
G1 X113.039 Y163.089 E5.97109
G1 X113.091 Y163.85 E6.00801
G1 X113.091 Y178.831 E6.73299
G1 X113.051 Y179.499 E6.76537
G1 X112.932 Y180.157 E6.79773
G1 X112.735 Y180.797 E6.83014
G1 X112.463 Y181.408 E6.86251
G1 X112.12 Y181.982 E6.89487
G1 X111.711 Y182.512 E6.92726
G1 X111.242 Y182.989 E6.95964
G1 X110.72 Y183.407 E6.992
G1 X110.151 Y183.759 E7.02438
G1 X109.544 Y184.041 E7.05677
G1 X108.908 Y184.249 E7.08915
G1 X108.252 Y184.379 E7.12151
G1 X107.491 Y184.431 E7.15843
G1 X92.509 Y184.431 E7.88346
G1 X91.841 Y184.391 E7.91584
G1 X91.183 Y184.272 E7.9482
G1 X90.543 Y184.075 E7.98061
G1 X89.932 Y183.803 E8.01297
G1 X89.358 Y183.46 E8.04533
G1 X88.828 Y183.051 E8.07773
G1 X88.351 Y182.582 E8.1101
G1 X87.933 Y182.06 E8.14247
G1 X87.581 Y181.491 E8.17485
G1 X87.299 Y180.884 E8.20724
G1 X87.091 Y180.248 E8.23962
G1 X86.961 Y179.592 E8.27198
G1 X86.909 Y178.831 E8.30889
G1 X86.909 Y163.849 E9.03393
G1 X86.949 Y163.181 E9.06631
G1 X87.068 Y162.523 E9.09867
G1 X87.265 Y161.883 E9.13108
G1 X87.537 Y161.272 E9.16344
G1 X87.88 Y160.698 E9.1958
G1 X88.289 Y160.168 E9.2282
G1 X88.758 Y159.691 E9.26057
G1 X89.28 Y159.273 E9.29293
G1 X89.849 Y158.921 E9.32531
G0 F2700 X90.227 Y159.176
G1 F900 X90.823 Y158.93 E9.35652
G1 X91.444 Y158.759 E9.38769
G1 X92.082 Y158.667 E9.41888
G1 X92.509 Y158.649 E9.43956
G1 X107.491 Y158.65 E10.1646
G1 X108.135 Y158.69 E10.19582
G1 X108.768 Y158.809 E10.22699
G1 X109.382 Y159.006 E10.2582
G1 X109.967 Y159.277 E10.2894
G1 X110.514 Y159.619 E10.32062
G1 X111.014 Y160.025 E10.35179
G1 X111.46 Y160.491 E10.383
G1 X111.845 Y161.008 E10.4142
G1 X112.164 Y161.568 E10.44538
G1 X112.41 Y162.164 E10.47659
G1 X112.581 Y162.786 E10.5078
G1 X112.673 Y163.424 E10.539
G1 X112.691 Y163.85 E10.55963
G1 X112.691 Y178.831 E11.28462
G1 X112.651 Y179.474 E11.31579
G1 X112.532 Y180.108 E11.34701
G1 X112.335 Y180.722 E11.37822
G1 X112.064 Y181.307 E11.40942
G1 X111.722 Y181.854 E11.44064
G1 X111.316 Y182.354 E11.4718
G1 X110.851 Y182.8 E11.50299
G1 X110.334 Y183.185 E11.53418
G1 X109.773 Y183.504 E11.56541
G1 X109.177 Y183.75 E11.59661
G1 X108.556 Y183.921 E11.62778
G1 X107.918 Y184.013 E11.65898
G1 X107.491 Y184.031 E11.67966
G1 X92.509 Y184.031 E12.40469
G1 X91.866 Y183.991 E12.43587
G1 X91.232 Y183.872 E12.46709
G1 X90.618 Y183.675 E12.49829
G1 X90.033 Y183.404 E12.52949
G1 X89.486 Y183.062 E12.56071
G1 X88.986 Y182.656 E12.59188
G1 X88.54 Y182.191 E12.62306
G1 X88.155 Y181.674 E12.65426
G1 X87.836 Y181.113 E12.68549
G1 X87.59 Y180.517 E12.71669
G1 X87.419 Y179.896 E12.74786
G1 X87.327 Y179.258 E12.77906
G1 X87.309 Y178.831 E12.79974
G1 X87.309 Y163.849 E13.52477
G1 X87.349 Y163.206 E13.55595
G1 X87.468 Y162.572 E13.58716
G1 X87.665 Y161.958 E13.61837
G1 X87.936 Y161.373 E13.64957
G1 X88.278 Y160.826 E13.68079
G1 X88.684 Y160.326 E13.71196
G1 X89.149 Y159.88 E13.74314
G1 X89.666 Y159.495 E13.77433
G1 X90.227 Y159.176 E13.80556
G1 F900 E9.80556
G0 F2700 X93.114 Y163.175
G0 X93.114 Y164.454
G0 X93.17 Y164.51
G0 X93.1 Y164.44
;TYPE:WALL-INNER
G1 F900 E13.80556
G1 X106.9 Y164.44 E14.47339
G1 X106.9 Y178.24 E15.14123
G1 X93.1 Y178.24 E15.80906
G1 X93.1 Y164.44 E16.47689
G0 F2700 X92.7 Y164.04
;TYPE:WALL-OUTER
G1 F900 X107.3 Y164.04 E17.18343
G1 X107.3 Y178.64 E17.88998
G1 X92.7 Y178.64 E18.59652
G1 X92.7 Y164.04 E19.30307
G0 F2700 X92.9 Y164.04
G0 X93.343 Y164.619
;TYPE:SKIN
G1 F900 X106.72 Y177.996 E20.21857
G0 X106.79 Y178.066
G0 F2700 X106.216 Y178.058
G1 F900 X93.28 Y165.122 E21.10389
G0 X93.21 Y165.052
G0 F2700 X93.28 Y165.687
G1 F900 X105.65 Y178.058 E21.95052
G0 X105.72 Y178.128
G0 F2700 X105.085 Y178.058
G1 F900 X93.28 Y166.253 E22.75844
G0 X93.21 Y166.183
G0 F2700 X93.28 Y166.819
G1 F900 X104.519 Y178.058 E23.52762
G0 X104.589 Y178.128
G0 F2700 X103.953 Y178.058
G1 F900 X93.28 Y167.384 E24.2581
G0 X93.21 Y167.314
G0 F2700 X93.28 Y167.95
G1 F900 X103.388 Y178.058 E24.94988
G0 X103.458 Y178.128
G0 F2700 X102.822 Y178.058
G1 F900 X93.28 Y168.516 E25.60292
G0 X93.21 Y168.446
G0 F2700 X93.28 Y169.081
G1 F900 X102.256 Y178.058 E26.21726
G0 X102.326 Y178.128
G0 F2700 X101.691 Y178.058
G1 F900 X93.28 Y169.647 E26.7929
G0 X93.21 Y169.577
G0 F2700 X93.28 Y170.213
G1 F900 X101.125 Y178.058 E27.3298
G0 X101.195 Y178.128
G0 F2700 X100.559 Y178.058
G1 F900 X93.28 Y170.779 E27.82797
G0 X93.21 Y170.709
G0 F2700 X93.28 Y171.344
G1 F900 X99.994 Y178.058 E28.28746
G0 X100.064 Y178.128
G0 F2700 X99.428 Y178.058
G1 F900 X93.28 Y171.91 E28.70823
G0 X93.21 Y171.84
G0 F2700 X93.28 Y172.476
G1 F900 X98.862 Y178.058 E29.09025
G0 X98.932 Y178.128
G0 F2700 X98.297 Y178.058
G1 F900 X93.28 Y173.041 E29.43361
G0 X93.21 Y172.971
G0 F2700 X93.28 Y173.607
G1 F900 X97.731 Y178.058 E29.73823
G0 X97.801 Y178.128
G0 F2700 X97.165 Y178.058
G1 F900 X93.28 Y174.173 E30.00411
G0 X93.21 Y174.103
G0 F2700 X93.28 Y174.738
G1 F900 X96.599 Y178.058 E30.2313
G0 X96.669 Y178.128
G0 F2700 X96.034 Y178.058
G1 F900 X93.28 Y175.304 E30.41978
G0 X93.21 Y175.234
G0 F2700 X93.28 Y175.87
G1 F900 X95.468 Y178.058 E30.56952
G0 X95.538 Y178.128
G0 F2700 X94.902 Y178.058
G1 F900 X93.28 Y176.435 E30.68056
G0 X93.21 Y176.365
G0 F2700 X93.28 Y177.001
G1 F900 X94.337 Y178.058 E30.7529
G0 X94.407 Y178.128
G0 F2700 X93.771 Y178.058
G1 F900 X93.28 Y177.567 E30.7865
G0 F2700 X93.908 Y164.619
G1 F900 X106.72 Y177.43 E31.66331
G0 X106.79 Y177.5
G0 F2700 X106.72 Y176.865
G1 F900 X94.474 Y164.619 E32.50141
G0 X94.404 Y164.549
G0 F2700 X95.04 Y164.619
G1 F900 X106.72 Y176.299 E33.30077
G0 X106.79 Y176.369
G0 F2700 X106.72 Y175.733
G1 F900 X95.605 Y164.619 E34.06144
G0 X95.535 Y164.549
G0 F2700 X96.171 Y164.619
G1 F900 X106.72 Y175.168 E34.7834
G0 X106.79 Y175.238
G0 F2700 X106.72 Y174.602
G1 F900 X96.737 Y164.619 E35.46662
G0 X96.667 Y164.549
G0 F2700 X97.302 Y164.619
G1 F900 X106.72 Y174.036 E36.11114
G0 X106.79 Y174.106
G0 F2700 X106.72 Y173.47
G1 F900 X97.868 Y164.619 E36.71693
G0 X97.798 Y164.549
G0 F2700 X98.434 Y164.619
G1 F900 X106.72 Y172.905 E37.28401
G0 X106.79 Y172.975
G0 F2700 X106.72 Y172.339
G1 F900 X98.999 Y164.619 E37.81239
G0 X98.929 Y164.549
G0 F2700 X99.565 Y164.619
G1 F900 X106.72 Y171.773 E38.30204
G0 X106.79 Y171.843
G0 F2700 X106.72 Y171.208
G1 F900 X100.131 Y164.619 E38.75298
G0 X100.061 Y164.549
G0 F2700 X100.696 Y164.619
G1 F900 X106.72 Y170.642 E39.16522
G0 X106.79 Y170.712
G0 F2700 X106.72 Y170.076
M104 S230
G1 F900 X101.262 Y164.619 E39.53872
G0 X101.192 Y164.549
G0 F2700 X101.828 Y164.619
G1 F900 X106.72 Y169.511 E39.87353
G0 X106.79 Y169.581
G0 F2700 X106.72 Y168.945
G1 F900 X102.394 Y164.619 E40.16959
G0 X102.324 Y164.549
G0 F2700 X102.959 Y164.619
G1 F900 X106.72 Y168.379 E40.42696
G0 X106.79 Y168.449
G0 F2700 X106.72 Y167.814
G1 F900 X103.525 Y164.619 E40.64562
G0 X103.455 Y164.549
G0 F2700 X104.091 Y164.619
G1 F900 X106.72 Y167.248 E40.82554
G0 X106.79 Y167.318
G0 F2700 X106.72 Y166.682
G1 F900 X104.656 Y164.619 E40.96677
G0 X104.586 Y164.549
G0 F2700 X105.222 Y164.619
G1 F900 X106.72 Y166.117 E41.06929
G0 X106.79 Y166.187
G0 F2700 X106.72 Y165.551
G1 F900 X105.788 Y164.619 E41.13307
G0 X105.718 Y164.549
G0 F2700 X106.353 Y164.619
G1 F900 X106.72 Y164.985 E41.15816
G0 F2700 X106.5 Y164.985
;TIME_ELAPSED:67.600569
;LAYER:1
M140 S80
G0 F4050 X106.9 Y164.44 Z0.55
;TYPE:WALL-INNER
G1 F1350 X106.9 Y178.24 E41.71468
G1 X93.1 Y178.24 E42.27121
G1 X93.1 Y164.44 E42.82773
G1 X106.9 Y164.44 E43.38426
G0 F4050 X107.3 Y164.04
;TYPE:WALL-OUTER
G1 F1200 X107.3 Y178.64 E43.97304
G1 X92.7 Y178.64 E44.56183
G1 X92.7 Y164.04 E45.15062
G1 X107.3 Y164.04 E45.73941
G0 F4050 X107.3 Y164.24
G0 X106.83 Y164.51
G0 X106.72 Y164.808
;TYPE:SKIN
G1 F1800 X93.469 Y178.059 E46.49514
G0 X93.399 Y178.129
G0 F4050 X93.28 Y177.683
G1 F1800 X106.344 Y164.618 E47.24024
G0 X106.414 Y164.548
G0 F4050 X105.778 Y164.618
G1 F1800 X93.28 Y177.117 E47.95306
G0 X93.21 Y177.187
G0 F4050 X93.28 Y176.551
G1 F1800 X105.213 Y164.618 E48.63362
G0 X105.283 Y164.548
G0 F4050 X104.647 Y164.618
G1 F1800 X93.28 Y175.986 E49.28194
G0 X93.21 Y176.056
G0 F4050 X93.28 Y175.42
G1 F1800 X104.081 Y164.618 E49.89797
G0 X104.151 Y164.548
G0 F4050 X103.516 Y164.618
G1 F1800 X93.28 Y174.854 E50.48176
G0 X93.21 Y174.924
G0 F4050 X93.28 Y174.289
G1 F1800 X102.95 Y164.618 E51.03329
G0 X103.02 Y164.548
G0 F4050 X102.384 Y164.618
G1 F1800 X93.28 Y173.723 E51.55254
G0 X93.21 Y173.793
G0 F4050 X93.28 Y173.157
G1 F1800 X101.819 Y164.618 E52.03954
G0 X101.889 Y164.548
G0 F4050 X101.253 Y164.618
G1 F1800 X93.28 Y172.592 E52.49428
G0 X93.21 Y172.662
G0 F4050 X93.28 Y172.026
G1 F1800 X100.687 Y164.618 E52.91675
G0 X100.757 Y164.548
G0 F4050 X100.122 Y164.618
G1 F1800 X93.28 Y171.46 E53.30696
G0 X93.21 Y171.53
G0 F4050 X93.28 Y170.894
G1 F1800 X99.556 Y164.618 E53.6649
G0 X99.626 Y164.548
G0 F4050 X98.99 Y164.618
G1 F1800 X93.28 Y170.329 E53.99058
G0 X93.21 Y170.399
G0 F4050 X93.28 Y169.763
G1 F1800 X98.425 Y164.618 E54.28401
G0 X98.495 Y164.548
G0 F4050 X97.859 Y164.618
G1 F1800 X93.28 Y169.197 E54.54516
G0 X93.21 Y169.267
G0 F4050 X93.28 Y168.632
G1 F1800 X97.293 Y164.618 E54.77406
G0 X97.363 Y164.548
G0 F4050 X96.727 Y164.618
G1 F1800 X93.28 Y168.066 E54.97068
G0 X93.21 Y168.136
G0 F4050 X93.28 Y167.5
G1 F1800 X96.162 Y164.618 E55.13505
G0 X96.232 Y164.548
G0 F4050 X95.596 Y164.618
G1 F1800 X93.28 Y166.935 E55.26716
G0 X93.21 Y167.005
G0 F4050 X93.28 Y166.369
G1 F1800 X95.03 Y164.618 E55.367
G0 X95.1 Y164.548
G0 F4050 X94.465 Y164.618
G1 F1800 X93.28 Y165.803 E55.43458
G0 X93.21 Y165.873
G0 F4050 X93.28 Y165.238
G1 F1800 X93.899 Y164.618 E55.46991
G0 X93.969 Y164.548
G0 F4050 X106.72 Y165.374
G1 F1800 X94.035 Y178.059 E56.19337
G0 X93.965 Y178.129
G0 F4050 X94.6 Y178.059
G1 F1800 X106.72 Y165.94 E56.88457
G0 X106.79 Y165.87
G0 F4050 X106.72 Y166.505
G1 F1800 X95.166 Y178.059 E57.54352
G0 X95.096 Y178.129
G0 F4050 X95.732 Y178.059
G1 F1800 X106.72 Y167.071 E58.17019
G0 X106.79 Y167.001
G0 F4050 X106.72 Y167.637
G1 F1800 X96.298 Y178.059 E58.76458
G0 X96.228 Y178.129
G0 F4050 X96.863 Y178.059
G1 F1800 X106.72 Y168.203 E59.32672
G0 X106.79 Y168.133
G0 F4050 X106.72 Y168.768
G1 F1800 X97.429 Y178.059 E59.85661
G0 X97.359 Y178.129
G0 F4050 X97.995 Y178.059
G1 F1800 X106.72 Y169.334 E60.35421
G0 X106.79 Y169.264
G0 F4050 X106.72 Y169.9
G1 F1800 X98.56 Y178.059 E60.81957
G0 X98.49 Y178.129
G0 F4050 X99.126 Y178.059
G1 F1800 X106.72 Y170.465 E61.25267
G0 X106.79 Y170.395
G0 F4050 X106.72 Y171.031
G1 F1800 X99.692 Y178.059 E61.6535
G0 X99.622 Y178.129
G0 F4050 X100.257 Y178.059
G1 F1800 X106.72 Y171.597 E62.02207
G0 X106.79 Y171.527
G0 F4050 X106.72 Y172.162
G1 F1800 X100.823 Y178.059 E62.35839
G0 X100.753 Y178.129
G0 F4050 X101.389 Y178.059
G1 F1800 X106.72 Y172.728 E62.66243
G0 X106.79 Y172.658
G0 F4050 X106.72 Y173.294
G1 F1800 X101.954 Y178.059 E62.93421
G0 X101.884 Y178.129
G0 F4050 X102.52 Y178.059
G1 F1800 X106.72 Y173.859 E63.17375
G0 X106.79 Y173.789
G0 F4050 X106.72 Y174.425
G1 F1800 X103.086 Y178.059 E63.381
G0 X103.016 Y178.129
G0 F4050 X103.651 Y178.059
G1 F1800 X106.72 Y174.991 E63.55601
G0 X106.79 Y174.921
G0 F4050 X106.72 Y175.556
G1 F1800 X104.217 Y178.059 E63.69876
G0 X104.147 Y178.129
G0 F4050 X104.783 Y178.059
G1 F1800 X106.72 Y176.122 E63.80923
G0 X106.79 Y176.052
G0 F4050 X106.72 Y176.688
G1 F1800 X105.349 Y178.059 E63.88742
G0 X105.279 Y178.129
G0 F4050 X105.914 Y178.059
G1 F1800 X106.72 Y177.253 E63.93339
G0 X106.79 Y177.183
G0 F4050 X106.72 Y177.819
G1 F1800 X106.48 Y178.059 E63.94708
G0 F4050 X106.48 Y177.84
;TIME_ELAPSED:89.573092
;LAYER:2
G0 F5400 X106.9 Y178.24 Z0.8
;TYPE:WALL-INNER
G1 F1800 X93.1 Y178.24 E64.5036
G1 X93.1 Y164.44 E65.06013
G1 X106.9 Y164.44 E65.61665
G1 X106.9 Y178.24 E66.17318
G0 F5400 X107.3 Y178.64
;TYPE:WALL-OUTER
G1 F1500 X92.7 Y178.64 E66.76197
G1 X92.7 Y164.04 E67.35075
G1 X107.3 Y164.04 E67.93954
G1 X107.3 Y178.64 E68.52833
G0 F5400 X107.1 Y178.64
G0 X106.72 Y177.996
;TYPE:SKIN
G1 F2700 X93.343 Y164.619 E69.29125
G0 X93.273 Y164.549
G0 F5400 X93.28 Y165.122
G1 F2700 X106.216 Y178.058 E70.02902
G0 X106.286 Y178.128
G0 F5400 X105.65 Y178.058
G1 F2700 X93.28 Y165.687 E70.73454
G0 X93.21 Y165.617
G0 F5400 X93.28 Y166.253
G1 F2700 X105.085 Y178.058 E71.4078
G0 X105.155 Y178.128
G0 F5400 X104.519 Y178.058
G1 F2700 X93.28 Y166.819 E72.04879
G0 X93.21 Y166.749
G0 F5400 X93.28 Y167.384
G1 F2700 X103.953 Y178.058 E72.65752
G0 X104.023 Y178.128
G0 F5400 X103.388 Y178.058
G1 F2700 X93.28 Y167.95 E73.234
G0 X93.21 Y167.88
G0 F5400 X93.28 Y168.516
G1 F2700 X102.822 Y178.058 E73.77821
G0 X102.892 Y178.128
G0 F5400 X102.256 Y178.058
G1 F2700 X93.28 Y169.081 E74.29016
G0 X93.21 Y169.011
G0 F5400 X93.28 Y169.647
G1 F2700 X101.691 Y178.058 E74.76986
G0 X101.761 Y178.128
G0 F5400 X101.125 Y178.058
G1 F2700 X93.28 Y170.213 E75.21727
G0 X93.21 Y170.143
G0 F5400 X93.28 Y170.779
G1 F2700 X100.559 Y178.058 E75.63241
G0 X100.629 Y178.128
G0 F5400 X99.994 Y178.058
G1 F2700 X93.28 Y171.344 E76.01533
G0 X93.21 Y171.274
G0 F5400 X93.28 Y171.91
G1 F2700 X99.428 Y178.058 E76.36596
G0 X99.498 Y178.128
